X:1
T: Errol on the Green
N:13 April 1997
C: A - trad.: B - Pat Shaw
S:
A:
O:
R:
M:4/4
K:D
I:speed 212
%W:         A
% voice 1 (1 lines, 15 notes)
K:D
M:4/4
L:1/16
F4 A4 A4 F4 |G4 F4 E4 D4 |F4 A4 A4 d4 |f8 d4 d4 |
%W:
% voice 1 (1 lines, 15 notes)
d6 e2 f4 f4 |g4 e4 e4 f2 e2 |d4 B4 A4 F4 |E8 D8 |
%W:
% voice 1 (1 lines, 15 notes)
F4 A4 A4 F4 |G4 F4 E4 D4 |F4 A4 A4 d4 |f8 d4 d4 |
%W:
% voice 1 (1 lines, 15 notes)
d6 e2 f4 f4 |g4 e4 e4 f2 e2 |d4 B4 A4 F4 |E8 D8 |
%W:         B
% voice 1 (1 lines, 13 notes)
f4 a4 a8 |f4 d4 d8 |f4 a4 b4 a2 g2 |f8 e8 |
%W:
% voice 1 (1 lines, 15 notes)
f4 a4 a4 b2 a2 |g4 f4 e4 d4 |A4 d4 d4 f4 |e8 a8 |
%W:
% voice 1 (1 lines, 13 notes)
f4 a4 a8 |f4 d4 d8 |f4 a4 b4 a2 g2 |f8 e8 |
%W:
% voice 1 (1 lines, 16 notes)
f4 a4 a4 b2 a2 |g4 f4 e4 f2 e2 |d4 B4 A4 F4 |E8 D8 |
